svg/tree.svg

<svg xmlns="http://www.w3.org/2000/svg" width="32" height="100" viewBox="0 0 32 100"><path fill="#fff" d="M16 0 8 25h4l-8 25h4L0 75h13v25h6V75h13L24 50h4L20 25h4z"/></svg>

<svg xmlns="http://www.w3.org/2000/svg" width="32" height="100" viewBox="0 0 32 100">
  <path fill="#FFF" d="M16 0 L8 25 L12 25 L4 50 L8 50 L0 75 H13 V100 H19 V75 H32 L24 50 L28 50 L20 25 L24 25 Z"/>
</svg>
